symbols/web/feed/materialsymbolsrounded/feed_wght300grad200fill1_48px.svg

<svg xmlns="http://www.w3.org/2000/svg" height="48" width="48"><path d="M9.1 41.8q-1.15 0-2.025-.875T6.2 38.9V9.1q0-1.15.875-2.025T9.1 6.2H32l9.8 9.8v22.9q0 1.15-.875 2.025T38.9 41.8Zm6.45-8.5H32.5q.6 0 1.025-.425.425-.425.425-1.075 0-.6-.425-1t-1.025-.4H15.55q-.65 0-1.075.425-.425.425-.425 1.025 0 .6.425 1.025.425.425 1.075.425Zm0-15.7h7q.6 0 1.025-.425Q24 16.75 24 16.1q0-.55-.425-.975-.425-.425-1.025-.425h-7q-.65 0-1.075.425-.425.425-.425 1.025 0 .65.425 1.05t1.075.4Zm0 7.85H32.5q.6 0 1.025-.425.425-.425.425-1.025 0-.6-.425-1.05-.425-.45-1.025-.45H15.55q-.65 0-1.075.45-.425.45-.425 1.05 0 .6.425 1.025.425.425 1.075.425Zm16.6-7.85h6.75l-8.5-8.5v6.75q0 .75.5 1.25t1.25.5Z"/></svg>

<svg xmlns="http://www.w3.org/2000/svg" height="48" width="48"><path d="M9.1 41.8Q7.95 41.8 7.075 40.925Q6.2 40.05 6.2 38.9V9.1Q6.2 7.95 7.075 7.075Q7.95 6.2 9.1 6.2H32L41.8 16V38.9Q41.8 40.05 40.925 40.925Q40.05 41.8 38.9 41.8ZM15.55 33.3H32.5Q33.1 33.3 33.525 32.875Q33.95 32.45 33.95 31.8Q33.95 31.2 33.525 30.8Q33.1 30.4 32.5 30.4H15.55Q14.9 30.4 14.475 30.825Q14.05 31.25 14.05 31.85Q14.05 32.45 14.475 32.875Q14.9 33.3 15.55 33.3ZM15.55 17.6H22.55Q23.15 17.6 23.575 17.175Q24 16.75 24 16.1Q24 15.55 23.575 15.125Q23.15 14.7 22.55 14.7H15.55Q14.9 14.7 14.475 15.125Q14.05 15.55 14.05 16.15Q14.05 16.8 14.475 17.2Q14.9 17.6 15.55 17.6ZM15.55 25.45H32.5Q33.1 25.45 33.525 25.025Q33.95 24.6 33.95 24Q33.95 23.4 33.525 22.95Q33.1 22.5 32.5 22.5H15.55Q14.9 22.5 14.475 22.95Q14.05 23.4 14.05 24Q14.05 24.6 14.475 25.025Q14.9 25.45 15.55 25.45ZM32.15 17.6H38.9L30.4 9.1V15.85Q30.4 16.6 30.9 17.1Q31.4 17.6 32.15 17.6Z"/></svg>
